!!!!SEGMENT: Ric2009-Exaudiat_te_Dominus.krn
!!!id: Ric2009
!!!AGN: Motet
!!!SCT: Elzinga (1999)
!!!voices: 4
!!!COM: Jean Richafort
!!!OTL: Exaudiat te Dominus
**kern	**kern	**kern	**kern
*part4	*part3	*part2	*part1
*staff4	*staff3	*staff2	*staff1
*I"Bassus	*I"Tenor	*I"Altus	*I"Superius
*I'B	*I'T	*I'A	*I'S
*clefF4	*clefGv2	*clefGv2	*clefG2
*k[]	*k[]	*k[]	*k[]
*C:	*C:	*C:	*C:
*M2/1	*M2/1	*M2/1	*M2/1
*met(C|)	*met(C|)	*met(C|)	*met(C|)
!!section: Prima pars: Exaudiat te Dominus
!!!OMD: Prima pars: Exaudiat te Dominus
=1	=1	=1	=1
0r	0r	1A	0r
.	.	2A	.
.	.	2A	.
=2	=2	=2	=2
0r	0r	1B	0r
.	.	1G	.
=3	=3	=3	=3
0r	0r	2.c	1e
.	.	4B	.
.	.	4A	2e
.	.	4G	.
.	.	[2A	2e
=4	=4	=4	=4
0r	0r	4A]	1f
.	.	4G	.
.	.	4F	.
.	.	4E	.
.	.	2F	1d
.	.	[2G	.
=5	=5	=5	=5
0r	0r	4G]	2.g
.	.	4F	.
.	.	4E	.
.	.	4D	4f
.	.	2C	4e
.	.	.	4d
.	.	[2c	[2e
=6	=6	=6	=6
1E	0r	4c]	4e]
.	.	4B	4d
.	.	1A	2c
2E	.	.	1B
2E	.	2G#i	.
=7	=7	=7	=7
1F	1A	1A	1A
1D	2A	1r	1r
.	2A	.	.
=8	=8	=8	=8
2.G	1B	0r	0r
4F	.	.	.
4E	2G	.	.
4D	.	.	.
2C	[2A	.	.
=9	=9	=9	=9
2D	4A]	0r	1a
.	4G	.	.
4C	1G	.	.
4BB	.	.	.
2AA	.	.	2a
2AA	2F#i	.	2a
=10	=10	=10	=10
0GG	0G	1d	1b
.	.	2d	1g
.	.	2d	.
=11	=11	=11	=11
0r	0r	2e	2.cc
.	.	2.f	.
.	.	.	4b
.	.	.	4a
.	.	4e	4g
.	.	2d	[2a
=12	=12	=12	=12
0r	1A	2c	4a]
.	.	.	4g
.	.	1d	2f
.	2A	.	1e
.	2A	2c#i	.
=13	=13	=13	=13
1G	1.B	0d	1d
2G	.	.	1r
2G	2G	.	.
=14	=14	=14	=14
1A	2.c	0r	0r
.	4B	.	.
1F	2c	.	.
.	[2d	.	.
=15	=15	=15	=15
1G	4d]	2r	0r
.	4c	.	.
.	4B	2d	.
.	4A	.	.
1G	[1B	2d	.
.	.	2d	.
=16	=16	=16	=16
0E	1B]	2.e	1g
.	.	4d	.
.	1r	2c	2g
.	.	2B	2g
=17	=17	=17	=17
0r	0r	4A	2a
.	.	4B	.
.	.	4c	2f
.	.	4d	.
.	.	2e	2g
.	.	[2f	[2a
=18	=18	=18	=18
2r	2r	4f]	4a]
.	.	4e	4g
2D	2A	4d	4f
.	.	4c	4e
2D	2A	1d	1f
2D	2B	.	.
=19	=19	=19	=19
2.C	2.c	1e	1e
4D	4c	.	.
2E	2B	1r	1r
[2F	2A	.	.
=20	=20	=20	=20
2F]	1c	0r	0r
2E	.	.	.
2D	2B	.	.
[2F	[2A	.	.
=21	=21	=21	=21
4F]	4A]	2r	0r
4E	4G	.	.
4D	4F	2A	.
4C	4E	.	.
1D	1F	2A	.
.	.	2B	.
=22	=22	=22	=22
1C	1G	1.c	2r
.	.	.	2e
1r	1r	.	2e
.	.	4B	2f
.	.	4A	.
=23	=23	=23	=23
0r	2r	2G	1.g
.	2E	2.e	.
.	2E	.	.
.	.	4d	.
.	2F	2c	4f
.	.	.	4e
=24	=24	=24	=24
1r	2G	2B	2d
.	2G	4c	2.e
.	.	4B	.
2r	2A	2c	.
.	.	.	4d
2AA	[2c	[2A	4c
.	.	.	4B
=25	=25	=25	=25
2AA	2c]	2A]	2A
2BB	4B	4G	2d
.	4A	4F	.
2C	2G	1E	2e
2C	[2A	.	2e
=26	=26	=26	=26
1D	4A]	2r	4f
.	4G	.	4e
.	4F	2A	4f
.	4E	.	4g
[1F	1D	2A	1a
.	.	2B	.
=27	=27	=27	=27
1F]	1A	2c	2r
.	.	2d	2A
2E	2G	2e	2c
2D	[2F	2A	2d
=28	=28	=28	=28
2C	2F]	1A	2e
4BB	1E	.	2c
4AA	.	.	.
1BB	.	1G#i	1d
.	2D	.	.
=29	=29	=29	=29
0AA	1E	1.A	0c
.	2r	.	.
.	2e	2E	.
=30	=30	=30	=30
1r	2d	2G	2r
.	2c	2A	2cc
2r	2.e	1E	2cc
2E	.	.	[2b
.	4d	.	.
=31	=31	=31	=31
2F	2c	1r	4b]
.	.	.	4a
2G	2B	.	4g
.	.	.	4f
1A	2c	2r	2e
.	4B	2e	2a
.	4A	.	.
=32	=32	=32	=32
2r	1B	2d	2a
2E	.	2e	2g
2F	1r	2c	2f
2G	.	[2e	4e
.	.	.	4d
=33	=33	=33	=33
2A	1r	2e]	2c
2B	.	1d	1f
1A	2r	.	.
.	2e	2c	2e
=34	=34	=34	=34
1D	2.d	2B	1f
.	.	1A	.
.	4c	.	.
1r	1B	.	1e
.	.	2G	.
=35	=35	=35	=35
2r	1.e	4A	2c
.	.	4B	.
2AA	.	4c	1cc
.	.	4d	.
2C	.	2e	.
2D	2d	2f	[2b
=36	=36	=36	=36
2E	2c	2e	2b]
2F	2A	2d	1a
1E	1B	1e	.
.	.	.	2g#i
=37	=37	=37	=37
1AA	1A	2r	1a
.	.	2c	.
2r	1r	2B	1r
2F	.	2A	.
=38	=38	=38	=38
2E	1r	2.B	2r
2D	.	.	2f
.	.	4B	.
1A	2r	2c	2e
.	2F	2A	2d
=39	=39	=39	=39
1r	2E	2B	2e
.	2D	1d	1a
2r	2.A	.	.
2F	.	[2c	2a
.	4B	.	.
=40	=40	=40	=40
2E	2c	2c]	2g
2D	1d	2B	2f
2.A	.	1c	[1e
.	2c	.	.
4F	.	.	.
=41	=41	=41	=41
2G	2B	2r	2e]
2.A	2.c	2f	4d
.	.	.	4c
.	.	1e	1c
4G	4B	.	.
2E	2G	.	.
=42	=42	=42	=42
2F	2A	1d	0r
2G	2B	.	.
[1C	2.c	1e	.
.	8BL	.	.
.	8AJ	.	.
=43	=43	=43	=43
1C]	1G	2r	0r
.	.	2c	.
2r	1r	2B	.
2F	.	2A	.
=44	=44	=44	=44
2E	1r	2B	2r
2D	.	2B	2f
1A	2r	2c	2e
.	2F	2A	2d
=45	=45	=45	=45
1r	2E	2B	2e
.	2D	1d	1.a
2r	2.A	.	.
2F	.	[2c	.
.	4B	.	.
=46	=46	=46	=46
2E	2c	2c]	2g
2D	2d	2B	2f
2A	4c	2c	2e
.	4B	.	.
[2D	4A	[2d	[2f
.	4G	.	.
=47	=47	=47	=47
4D]	2A	2d]	2f]
4BB	.	.	.
2C	2G	4c	1e
.	.	4B	.
1D	1F	[1A	.
.	.	.	2d
=48	=48	=48	=48
1AA	1E	2A]	[0e
.	.	4G	.
.	.	4F	.
1r	2r	1E	.
.	2G	.	.
=49	=49	=49	=49
1r	2A	2r	0e]
.	2B	2G	.
2r	1c	2A	.
2C	.	2G	.
=50	=50	=50	=50
2D	1B	4F	0r
.	.	4E	.
2E	.	1e	.
1F	2r	.	.
.	2A	2d	.
=51	=51	=51	=51
1E	2B	1e	0r
.	2c	.	.
2r	1d	1r	.
2D	.	.	.
=52	=52	=52	=52
2E	2B	2r	0r
2F	2.d	2A	.
1G	.	1B	.
.	4c	.	.
.	4B	.	.
.	4A	.	.
=53	=53	=53	=53
2E	2G	1c	0r
1F	1A	.	.
.	.	1d	.
4E	4G	.	.
4D	4F	.	.
=54	=54	=54	=54
2E	2G	2B	0r
1AA	2.A	1c	.
.	4G	.	.
[2A	2F	4B	.
.	.	4A	.
=55	=55	=55	=55
2A]	1E	1B	0r
2G	.	.	.
2E	1r	2G	.
[2F	.	[2A	.
=56	=56	=56	=56
2F]	1c	2A]	1r
4E	.	4G	.
4D	.	4F	.
1C	2c	1E	1g
.	2c	.	.
=57	=57	=57	=57
0r	2.c	1r	2g
.	.	.	2g
.	4d	.	.
.	[1e	1c	2g
.	.	.	2g
=58	=58	=58	=58
0r	1e]	2c	1g
.	.	2c	.
.	[1A	2c	1a
.	.	2c	.
=59	=59	=59	=59
0r	2A]	1c	1cc
.	2A	.	.
.	2G	1d	2b
.	[2F	.	[2a
=60	=60	=60	=60
0r	2F]	1f	2a]
.	4E	.	4g
.	4D	.	4f
.	2C	2e	1g
.	4G	[2d	.
.	4A	.	.
=61	=61	=61	=61
0r	4B	2d]	2f
.	4G	.	.
.	2c	1c	2e
.	1G	.	1d
.	.	2B	.
=62	=62	=62	=62
2r	2r	1c	1c
2C	2G	.	.
2BB	2G	1r	1r
2AA	2A	.	.
=63	=63	=63	=63
2.C	2.G	1r	2r
.	.	.	2e
4D	4F	.	.
1E	2G	2r	2e
.	2C	2c	2e
=64	=64	=64	=64
0r	1D	2B	1f
.	.	2A	.
.	2C	2.c	1e
.	2A	.	.
.	.	4d	.
=65	=65	=65	=65
2r	2G	1e	0r
2C	2E	.	.
2BB	1F	1r	.
2AA	.	.	.
=66	=66	=66	=66
2.C	1E	2r	2r
.	.	2c	2e
4D	.	.	.
1E	1r	2B	2e
.	.	2G	2e
=67	=67	=67	=67
2r	0r	4A	2f
.	.	4B	.
2C	.	4c	2e
.	.	4A	.
2BB	.	2B	2d
2AA	.	[2c	[2e
=68	=68	=68	=68
2.C	0r	4c]	4e]
.	.	4B	4d
.	.	1A	2c
4D	.	.	.
1E	.	.	1B
.	.	2G#i	.
=69	=69	=69	=69
1r	1r	1A	1A
1F	[1A	1c	1a
=70	=70	=70	=70
2F	2A]	2d	2a
1E	2B	1e	1g
.	2G	.	.
2E	[2c	2e	2g
=71	=71	=71	=71
2.C	4c]	2e	2cc
.	4B	.	.
.	1A	2e	2cc
4D	.	.	.
2E	.	2e	2.b
2E	2G#i	2e	.
.	.	.	4b
=72	=72	=72	=72
2.A	2A	2.c	1.e
.	1c	.	.
4G	.	4B	.
4F	.	4A	.
4E	.	4G	.
[2D	4B	[2d	[2f
.	4A	.	.
=73	=73	=73	=73
2D]	2B	2d]	2f]
2C	2.c	2G	2.e
1F	.	1A	.
.	4B	.	4c
.	2A	.	2d
=74	=74	=74	=74
[0E	1G	1B	[0e
.	2r	1G	.
.	2B	.	.
=75	=75	=75	=75
0E]	2c	2r	0e]
.	2B	2B	.
.	2E	2c	.
.	2B	2B	.
=76	=76	=76	=76
1r	2c	0E	2r
.	2B	.	2b
2r	2.e	.	2cc
2G	.	.	2b
.	4d	.	.
=77	=77	=77	=77
2A	2c	1r	2e
2D	2d	.	1a
1E	1B	2r	.
.	.	2e	2g
=78	=78	=78	=78
2r	1r	2f	2a
2E	.	2e	2g
2F	2r	2A	2a
2E	2G	[2e	2g
=79	=79	=79	=79
2AA	2A	4e]	0e
.	.	4d	.
1A	2A	2c	.
.	1E	1B	.
2G#i	.	.	.
=80	=80	=80	=80
2A	2r	2r	0r
2AA	2e	1c	.
2A	2c	.	.
2G	2d	2B	.
=81	=81	=81	=81
0E	2.e	2c	0r
.	.	2B	.
.	4d	.	.
.	2.e	2c	.
.	.	2B	.
.	8dL	.	.
.	8cJ	.	.
=82	=82	=82	=82
2r	0B	1G	1.g
1E	.	.	.
.	.	1r	.
2D	.	.	2f
=83	=83	=83	=83
2.C	0r	2r	2.e
.	.	1e	.
4BB	.	.	4d
1D	.	.	1f
.	.	2d	.
=84	=84	=84	=84
2AA	0r	2.c	1e
1A	.	.	.
.	.	4B	.
.	.	2c	2c
2G	.	[2B	[2d
=85	=85	=85	=85
1F	1r	2B]	4d]
.	.	.	4c
.	.	1A	2A
1E	2r	.	1B
.	[2e	2G	.
=86	=86	=86	=86
2r	2e]	1F	1A
1A	2d	.	.
.	2c	1E	1r
2G	2B	.	.
=87	=87	=87	=87
2.F	2c	1r	0r
.	2.A	.	.
4E	.	.	.
2D	.	2r	.
.	4B	.	.
2C	4c	[2A	.
.	4A	.	.
=88	=88	=88	=88
2BB	1B	2A]	2r
2GG	.	2G	1d
1AA	2r	2F	.
.	[2A	2E	2c
=89	=89	=89	=89
1r	2A]	1G	2.B
.	2G	.	.
.	.	.	4A
2r	2.F	1A	1c
[2A	.	.	.
.	4E	.	.
=90	=90	=90	=90
2A]	1G	2E	1B
2G	.	1e	.
[1F	2.A	.	2A
.	.	2d	[2a
.	4B	.	.
=91	=91	=91	=91
2F]	2c	2c	2a]
4E	2d	2f	4g
4D	.	.	4f
1E	1B	1e	1g
=92	=92	=92	=92
2r	1A	2r	1a
2F	.	2A	.
2E	1r	2B	1r
2C	.	2c	.
=93	=93	=93	=93
2D	1r	2A	2r
2D	.	2B	2f
1C	2r	1c	2e
.	2c	.	2c
=94	=94	=94	=94
1r	2B	1r	2d
.	2G	.	2d
2r	2A	2r	2c
2A	2A	2c	2cc
=95	=95	=95	=95
2G	2B	2d	2b
2E	1c	2e	2g
2F	.	2c	2a
2F	2A	2d	2a
=96	=96	=96	=96
[0El	2B	1.e	[0gl
.	1c	.	.
.	4B	4d	.
.	4A	4c	.
=	=	=	=
00E]	00G	00B	00g]
=||	=||	=||	=||
*M2/1	*M2/1	*M2/1	*M2/1
*met(C|)	*met(C|)	*met(C|)	*met(C|)
!!section: Secunda pars: Impleat Dominus
!!!OMD: Secunda pars: Impleat Dominus
0C	0c	0e	0g
=97	=97	=97	=97
1E	1B	1e	1g
1C	1c	1e	1g
=98	=98	=98	=98
1F	1A	1d	1a
1G	1B	1d	1g
=99	=99	=99	=99
0C	1c	1e	0g
.	2r	2.c	.
.	2G	.	.
.	.	4B	.
=100	=100	=100	=100
2r	1.c	2A	0r
2C	.	2G	.
[1F	.	1A	.
.	2c	.	.
=101	=101	=101	=101
2F]	2d	1r	0r
2F	2d	.	.
2G	[1e	2r	.
2G	.	2G	.
=102	=102	=102	=102
2.A	2.e]	1.c	2r
.	.	.	2c
4G	8dL	.	.
.	8cJ	.	.
2F	4B	.	[1f
.	4A	.	.
2E	[2c	2c	.
=103	=103	=103	=103
1D	2c]	2d	2f]
.	2B	2d	2f
1C	2c	2.e	2g
.	2C	.	2g
.	.	4d	.
=104	=104	=104	=104
0r	1.F	2c	2.a
.	.	2B	.
.	.	.	4g
.	.	4A	2f
.	.	4G	.
.	2F	[2c	2e
=105	=105	=105	=105
0r	2G	2c]	2d
.	2G	2B	2.e
.	2.A	2A	.
.	.	.	4d
.	.	[2c	4c
.	4G	.	4B
=106	=106	=106	=106
0r	2F	4c]	4A
.	.	4B	4G
.	2E	2G	1g
.	1D	1A	.
.	.	.	2f#i
=107	=107	=107	=107
1r	1r	1G	1g
1E	1G	1B	1e
=108	=108	=108	=108
1D	1A	1d	1f
1D	1B	1d	1f
=109	=109	=109	=109
[0C	2c	0G	[0e
.	2C	.	.
.	2E	.	.
.	2F	.	.
=110	=110	=110	=110
0C_	2G	[0c	1e]
.	2A	.	.
.	2G	.	2r
.	[2A	.	2c
=111	=111	=111	=111
0C]	2A]	0c]	2e
.	4G	.	2f
.	4F	.	.
.	2E	.	2g
.	2e	.	4a
.	.	.	4g
=112	=112	=112	=112
0r	2d	2r	4a
.	.	.	4b
.	1e	2C	1cc
.	.	2E	.
.	4d	2F	4b
.	4c	.	4a
=113	=113	=113	=113
0r	4B	2G	2b
.	4A	.	.
.	2c	2A	1a
.	1B	1E	.
.	.	.	2g#i
=114	=114	=114	=114
0r	2r	1A	1a
.	1A	.	.
.	.	1r	2r
.	2A	.	[2e
=115	=115	=115	=115
0r	1.c	0r	2e]
.	.	.	2e
.	.	.	[1g
.	4B	.	.
.	4A	.	.
=116	=116	=116	=116
0r	2B	2r	2g]
.	2c	1A	4f
.	.	.	4e
.	2F	.	2f
.	[2c	2A	[2e
=117	=117	=117	=117
0r	4c]	1.c	4e]
.	4B	.	4d
.	1A	.	4c
.	.	.	4B
.	.	.	2A
.	4G	4B	[2a
.	4F	4A	.
=118	=118	=118	=118
0r	1E	2B	2a]
.	.	2c	2g
.	2r	2G	1f
.	[2A	[2c	.
=119	=119	=119	=119
2r	2A]	4c]	1e
.	.	4B	.
1AA	2A	1A	.
.	[1c	.	2r
2AA	.	4G	[2a
.	.	4F	.
=120	=120	=120	=120
1.C	2c]	1E	2a]
.	4B	.	2g
.	4A	.	.
.	2G	1r	2e
2AA	[2A	.	[2f
=121	=121	=121	=121
2BB	4A]	2r	2f]
.	4G	.	.
2C	2E	1A	1e
1D	1F	.	.
.	.	2A	2d
=122	=122	=122	=122
2.C	1E	1.c	1.e
4D	.	.	.
2E	1r	.	.
2F	.	2A	[2d
=123	=123	=123	=123
1G	2r	2.B	4d]
.	.	.	4c
.	2G	.	1B
.	.	4c	.
1D	2G	1d	.
.	2F	.	2A
=124	=124	=124	=124
2r	0E	1G	[0B
2G	.	.	.
2.G	.	2r	.
.	.	2G	.
4F	.	.	.
=125	=125	=125	=125
2E	1r	2G	1B]
2D	.	2F	.
1C	2r	2E	1r
.	2G	4D	.
.	.	4C	.
=126	=126	=126	=126
1GG	2.G	1D	2r
.	.	.	2g
.	4F	.	.
1r	2E	2C	2g
.	2D	4F	2f
.	.	4G	.
=127	=127	=127	=127
0r	4C	4A	2e
.	4D	4B	.
.	4E	4c	2e
.	4F	4A	.
.	1G	4B	2d
.	.	4c	.
.	.	[2d	2g
=128	=128	=128	=128
0r	1r	2d]	4f
.	.	.	4e
.	.	1c	4d
.	.	.	4c
.	1G	.	1d
.	.	2B	.
=129	=129	=129	=129
0r	2A	1c	1c
.	1c	.	.
.	.	2r	1g
.	4B	2c	.
.	4A	.	.
=130	=130	=130	=130
0r	2B	2d	2r
.	2c	2e	2g
.	2F	1f	2a
.	[2A	.	[2cc
=131	=131	=131	=131
0r	2A]	1e	2cc]
.	4G	.	4b
.	4F	.	4a
.	1E	2r	2b
.	.	2c	2g
=132	=132	=132	=132
0r	1D	2d	2a
.	.	1f	2a
.	2r	.	1g
.	2G	2e	.
=133	=133	=133	=133
0r	2A	2c	1r
.	1c	2e	.
.	.	1d	2r
.	2B	.	2g
=134	=134	=134	=134
1r	2A	1r	2a
.	2A	.	1cc
2r	1G	2r	.
2G	.	2d	4b
.	.	.	4a
=135	=135	=135	=135
2G	0r	2d	2b
2G	.	2d	2g
2G	.	2d	2b
2F	.	2d	2a
=136	=136	=136	=136
2.E	1r	1e	1g
4D	.	.	.
4C	2r	1E	2r
4BB	.	.	.
[2C	2c	.	2g
=137	=137	=137	=137
2C]	2c	0e	2g
4BB	2c	.	2g
4AA	.	.	.
1E	2c	.	2g
.	2B	.	2g
=138	=138	=138	=138
0r	2.A	2r	1.a
.	.	2c	.
.	4B	.	.
.	4c	2c	.
.	4d	.	.
.	[2e	2c	4g
.	.	.	4f
=139	=139	=139	=139
0r	2e]	2c	4e
.	.	.	4f
.	1d	2B	4e
.	.	.	4d
.	.	1A	1e
.	2c	.	.
=140	=140	=140	=140
2r	2.B	2.d	2r
2G	.	.	2d
.	4A	4c	.
2G	2G	4B	2d
.	.	4A	.
2G	[2d	[2B	2d
=141	=141	=141	=141
2G	4d]	2B]	2d
.	4c	.	.
2F	4B	1A	2d
.	4A	.	.
1E	1B	.	4e
.	.	.	4d
.	.	2G	4c
.	.	.	4B
=142	=142	=142	=142
1.A	1A	2.F	2c
.	.	.	2A
.	.	4E	.
.	1r	1D	[1a
2G	.	.	.
=143	=143	=143	=143
2.F	0r	1r	2a]
.	.	.	2g
4E	.	.	.
2D	.	[1d	2f
[2G	.	.	2d
=144	=144	=144	=144
4G]	1r	2d]	1e
4F	.	.	.
2E	.	2c	.
1D	2r	2B	1f
.	[2A	2A	.
=145	=145	=145	=145
1C	2A]	2.c	1e
.	2G	.	.
.	.	4B	.
2r	2.F	4A	1r
.	.	4G	.
[2A	.	[2F	.
.	4E	.	.
=146	=146	=146	=146
4A]	2D	2F]	2r
4G	.	.	.
4F	2.d	2.f	1a
4E	.	.	.
2F	.	.	.
.	4c	4e	.
2G	2B	[2d	[2g
=147	=147	=147	=147
1D	1A	4d]	2g]
.	.	4c	.
.	.	2A	2f
1r	1G	2.B	2e
.	.	.	[2d
.	.	4A	.
=148	=148	=148	=148
0r	2r	2G	4d]
.	.	.	4c
.	1A	2F	4B
.	.	.	4A
.	.	1E	1B
.	2G	.	.
=149	=149	=149	=149
2r	2.F	2r	1A
1A	.	2D	.
.	4E	.	.
.	2D	2F	[1a
2G	[2d	2G	.
=150	=150	=150	=150
2.F	2d]	1.A	2a]
.	2c	.	2g
4E	.	.	.
2D	2.d	.	2f
[2G	.	2B	2e
.	4c	.	.
=151	=151	=151	=151
4G]	4B	2G	2d
4F	4A	.	.
2E	1G	1c	2c
1D	.	.	1d
.	2F	2B	.
=152	=152	=152	=152
1C	1G	1c	[0e
1r	2r	1C	.
.	[2E	.	.
=153	=153	=153	=153
1E	4E]	1r	0e_
.	4F	.	.
.	4G	.	.
.	4A	.	.
1r	2B	2.E	.
.	[2c	.	.
.	.	4F	.
=154	=154	=154	=154
1.E	2c]	4G	0e_
.	.	4F	.
.	4B	4G	.
.	4A	4A	.
.	2G	2B	.
2AA	2A	[2c	.
=155	=155	=155	=155
2.C	1E	2c]	0e_
.	.	4B	.
4D	.	4A	.
1E	2r	[1G	.
.	[2E	.	.
=156	=156	=156	=156
2r	4E]	1G]	0e_
.	4F	.	.
1E	4G	.	.
.	4A	.	.
.	2B	2r	.
2AA	[2c	[2E	.
=157	=157	=157	=157
2.C	2c]	4E]	0e]
.	.	4F	.
.	4B	2G	.
4D	4A	.	.
4E	2G	2C	.
4F	.	.	.
[2E	2c	[2G	.
=158	=158	=158	=158
4E]	2B	4G]	0r
4D	.	4F	.
2C	1A	1E	.
1BB	.	.	.
.	2G#i	2D	.
=159	=159	=159	=159
0AA	1A	2E	1r
.	.	1e	.
.	1E	.	2r
.	.	2A	[2e
=160	=160	=160	=160
1r	2r	2.c	4e]
.	.	.	4f
.	1e	.	4g
.	.	8BL	4a
.	.	8AJ	.
2r	.	2G	2b
[2A	2A	2F	[2cc
=161	=161	=161	=161
2A]	2c	1f	2cc]
2D	2d	.	4b
.	.	.	4a
2.E	2B	1e	2g
.	[2e	.	2cc
4F	.	.	.
=162	=162	=162	=162
2G	4e]	1r	2b
.	4d	.	.
2A	2c	.	1a
1E	1B	2r	.
.	.	[2e	2g#i
=163	=163	=163	=163
1r	0A	2e]	1a
.	.	2A	.
2r	.	2.c	1e
[2A	.	.	.
.	.	4d	.
=164	=164	=164	=164
2A]	0r	2e	1r
2D	.	1f	.
2.F	.	.	2r
.	.	4e	[2a
4G	.	4d	.
=165	=165	=165	=165
2A	2r	2c	2a]
2B-i	1d	1f	2d
1A	.	.	1e
.	2c	[2e	.
=166	=166	=166	=166
0r	2A	2e]	1f
.	2B	2d	.
.	1c	[1e	2e
.	.	.	2A
=167	=167	=167	=167
1r	2C	1e]	4c
.	.	.	4B
.	1c	.	4c
.	.	.	4d
2r	.	1r	2e
[2D	2A	.	[2f
=168	=168	=168	=168
2D]	2B	1r	2f]
2C	1c	.	4e
.	.	.	4d
2AA	.	2r	2c
2BB	4B	[2d	[2f
.	4A	.	.
=169	=169	=169	=169
1C	2G	2d]	2f]
.	2A	2c	1e
1D	1F	2A	.
.	.	2B	2d
=170	=170	=170	=170
2AA	0E	1c	1e
1C	.	.	.
.	.	1G	2r
4BB	.	.	2g
4AA	.	.	.
=171	=171	=171	=171
0GG	2r	2r	1g
.	1G	2d	.
.	.	1d	2g
.	4F	.	2g
.	4E	.	.
=172	=172	=172	=172
2r	2F	2d	2a
2G	2G	2d	2b
1G	2C	1e	1g
.	[2c	.	.
=173	=173	=173	=173
2G	2c]	2d	0r
2G	2B	2.e	.
2.A	1c	.	.
.	.	4d	.
.	.	4c	.
4G	.	4B	.
=174	=174	=174	=174
2F	1r	2A	0r
2G	.	2.d	.
2D	2r	.	.
.	.	4c	.
[2G	2d	4B	.
.	.	4A	.
=175	=175	=175	=175
4G]	1d	4B	1r
4E	.	4G	.
2F	.	1c	.
1G	2d	.	2r
.	2d	2B	2g
=176	=176	=176	=176
1C	2.e	1c	1g
.	4d	.	.
1r	2c	1r	2g
.	2B	.	2g
=177	=177	=177	=177
0r	2A	0r	2.a
.	1d	.	.
.	.	.	4g
.	.	.	2f
.	2c	.	2e
=178	=178	=178	=178
0r	4B	1r	2d
.	4A	.	.
.	1c	.	2c
.	.	2r	2.g
.	2B	2G	.
.	.	.	4f
=179	=179	=179	=179
0r	1c	2A	2e
.	.	1c	4d
.	.	.	4c
.	2r	.	1d
.	2G	2B	.
=180	=180	=180	=180
1r	2A	2A	1c
.	1c	1e	.
2r	.	.	1r
2G	2B	2d	.
=181	=181	=181	=181
2A	2A	2.c	2r
2.c	2.e	.	2g
.	.	4d	.
.	.	2e	2a
4B	4d	.	.
4A	4c	[2f	[2cc
4G	4B	.	.
=182	=182	=182	=182
2A	2c	2f]	4cc]
.	.	.	4b
2E	1B	1e	2g
1F	.	.	2a
.	2A	2d	2a
=183	=183	=183	=183
1E	1B	2e	0g
.	.	2E	.
2r	2r	1G	.
2E	[2B	.	.
=184	=184	=184	=184
1G	2B]	1r	1r
.	2B	.	.
[1C	2A	2r	2r
.	2G	2E	[2e
=185	=185	=185	=185
2C]	2.c	2G	2e]
2C	.	2G	2e
.	4B	.	.
1F	1A	2A	2d
.	.	[2c	2c
=186	=186	=186	=186
1D	1r	2c]	2f
.	.	2B	2f
1C	2r	2c	2.e
.	[2E	4C	.
.	.	4D	8dL
.	.	.	8cJ
=187	=187	=187	=187
0r	2E]	4E	4B
.	.	4F	4A
.	2E	4G	4B
.	.	4A	4c
.	2D	2B	2d
.	2C	[2c	2e
=188	=188	=188	=188
1r	2F	2c]	2A
.	2F	4B	1a
.	.	4A	.
2r	2E	2B	.
[2E	4C	[2c	4g
.	4D	.	4f
=189	=189	=189	=189
2E]	4E	4c]	1g
.	4F	4d	.
2E	4G	4e	.
.	4A	4c	.
2D	2B	2d	2f
2C	[2c	2e	[2e
=190	=190	=190	=190
2F	4c]	1A	4e]
.	4B	.	4c
2F	1A	.	2d
1E	.	1B	2e
.	2G#i	.	2B
=191	=191	=191	=191
2r	2A	1A	2.c
2AA	2e	.	.
.	.	.	4B
2C	2e	1r	2c
2BB	2d	.	2d
=192	=192	=192	=192
2.C	1c	2r	1e
.	.	2A	.
4D	.	.	.
1E	1B	2A	2r
.	.	2G	2B
=193	=193	=193	=193
2r	2r	1A	2.c
2AA	2e	.	.
.	.	.	4B
2C	2e	[1G	2c
2BB	2d	.	2d
=194	=194	=194	=194
2.C	1c	0G]	0e
4D	.	.	.
1E	1B	.	.
=195	=195	=195	=195
2r	2r	2r	2r
1F	1A	1c	1a
2F	2F	2A	2a
=196	=196	=196	=196
2.E	2.G	2.c	2g
.	.	.	2g
4D	4F	4B	.
2C	2E	2A	2a
2BB	2D	2G	2b
=197	=197	=197	=197
4AA	2E	2A	1cc
4BB	.	.	.
4C	2e	2A	.
4D	.	.	.
1E	2.e	2A	1b
.	.	2G	.
.	4d	.	.
=198	=198	=198	=198
0r	2c	2A	2r
.	2A	2F	2a
.	1B	1E	2a
.	.	.	2g
=199	=199	=199	=199
2r	2r	2r	2.cc
2A	2e	2c	.
.	.	.	4b
2A	2.e	2c	4a
.	.	.	4g
2G	.	2B	[2b
.	4d	.	.
=200	=200	=200	=200
2A	2c	2c	2b]
2F	2A	2d	1a
1E	1B	1e	.
.	.	.	2g#i
=201	=201	=201	=201
1A	1r	1.c	1a
1r	[1c	.	1e
.	.	2B	.
=202	=202	=202	=202
1.c	2c]	1A	1r
.	2B	.	.
.	1A	1r	[1cc
2B	.	.	.
=203	=203	=203	=203
2A	0r	1c	2cc]
2G	.	.	2b
2F	.	2c	2a
2E	.	2c	2g
=204	=204	=204	=204
2D	2r	2d	2f
2C	1c	2.e	2.g
1G	.	.	.
.	.	4c	4f
.	2B	2d	4e
.	.	.	4d
=205	=205	=205	=205
0r	2.A	2e	1c
.	.	2c	.
.	4G	.	.
.	2F	2A	2d
.	2E	2B	[2e
=206	=206	=206	=206
0r	2C	2c	2e]
.	2D	1A	4d
.	.	.	4c
.	1E	.	1B
.	.	2G#i	.
=207	=207	=207	=207
1r	1r	2A	1A
.	.	1c	.
[1c	[1e	.	1r
.	.	2B	.
=208	=208	=208	=208
2c]	2e]	1A	1e
2B	2d	.	.
2A	2c	1c	2e
2G	[2B	.	2e
=209	=209	=209	=209
2F	4B]	2c	1.f
.	8AL	.	.
.	8GJ	.	.
2E	1c	2c	.
1D	.	1d	.
.	2B	.	4e
.	.	.	4d
=210	=210	=210	=210
1C	1c	2G	2e
.	.	2A	2e
1r	2r	2A	2f
.	2B	2G	2g
=211	=211	=211	=211
1r	2c	1F	1a
.	2d	.	.
2r	1e	2E	2g
2E	.	2e	[2cc
=212	=212	=212	=212
2F	2A	2e	2cc]
2G	2B	2d	2b
1A	2.c	1c	2a
.	.	.	[2f
.	4d	.	.
=213	=213	=213	=213
2G	2e	2B	2f]
2E	1c	2G	1e
1F	.	1A	.
.	4B	.	2d
.	4A	.	.
=214	=214	=214	=214
1E	2G	1B	0e
.	2G	.	.
2r	2A	1r	.
2G	2B	.	.
=215	=215	=215	=215
2A	2.c	1e	2r
1c	.	.	2g
.	4B	.	.
.	2A	2e	2a
2B	2G	2e	2b
=216	=216	=216	=216
2A	2A	2.e	2.cc
2G	2B	.	.
.	.	4d	4b
1A	4c	2c	2a
.	4B	.	.
.	4c	2A	2a
.	4d	.	.
=217	=217	=217	=217
1E	1e	2B	0g
.	.	2.e	.
2r	1E	.	.
.	.	4d	.
2C	.	4c	.
.	.	4B	.
=218	=218	=218	=218
2D	2r	1A	2r
1F	2A	.	2c
.	2A	1B	2d
2E	2G	.	2e
=219	=219	=219	=219
2D	2.A	2r	2f
2C	.	2c	2e
.	4G	.	.
1D	2F	2A	2e
.	2F	2B	2d
=220	=220	=220	=220
1AA	0E	2.c	[0el
.	.	4A	.
2r	.	2B	.
2GG	.	2B	.
=221	=221	=221	=221
2AA	2r	1E	0e_
1C	2G	.	.
.	2A	2r	.
2BB	2B	2G	.
=222	=222	=222	=222
2AA	2.c	2A	0e_
2GG	.	2B	.
.	4B	.	.
1AA	2A	2c	.
.	2A	2A	.
=223	=223	=223	=223
[0El	1.G	2B	0e_
.	.	1c	.
.	2A	4B	.
.	.	4A	.
=224	=224	=224	=224
00E]	00Bl	00Gl	00e]
==	==	==	==
*-	*-	*-	*-
!!!system-decoration: [*]
!!!RDF**kern: i = editorial accidental
!!!RDF**kern: l = terminal long
!!!ENC: Benjamin Ory
!!!END: 2021/1/12
!!!EED: Benjamin Ory
!!!EEV: 2021/05/02
!!!YEC: Copyright 2021 Benjamin Ory, All Rights Reserved
!!!ONB: Translated from MusicXML on 2021/05/02
